brandFactory_export/1.Light/Data network_1Light.svg

<?xml version="1.0" encoding="UTF-8"?>
<svg width="24px" height="24px" viewBox="0 0 24 24" version="1.1" xmlns="http://www.w3.org/2000/svg" xmlns:xlink="http://www.w3.org/1999/xlink">
    <title>1.Light/Data network_1Light</title>
    <g id="Symbols" stroke="none" stroke-width="1" fill="none" fill-rule="evenodd">
        <g id="1.Light/Data-network_1Light" fill="#5CB615" fill-rule="nonzero">
            <path d="M22.1008403,14.6218487 L18.4302521,14.6218487 C18.692437,13.4184874 18.8403361,12.097479 18.8403361,10.7058824 C18.8403361,9.56302521 18.7428571,8.46722689 18.5613445,7.44201681 L22.2689076,7.44201681 C22.5008403,8.42689076 22.6218487,9.52268908 22.6218487,10.7361345 C22.6218487,12.194958 22.4436975,13.4890756 22.1008403,14.6218487 Z M15.6302521,20.2117647 C16.7294118,19.1865546 17.6201681,17.5798319 18.1915966,15.6067227 L21.7512605,15.6067227 C20.6823529,18.1008403 18.6420168,19.6403361 15.6302521,20.2117647 Z M13.2302521,20.4302521 L13.2302521,15.6067227 L17.1428571,15.6067227 C16.3394958,18.2521008 14.9008403,20.1142857 13.2302521,20.4302521 Z M13.2302521,7.44537815 L17.5394958,7.44537815 C17.7310924,8.47058824 17.8386555,9.56302521 17.8386555,10.7092437 C17.8386555,12.097479 17.6907563,13.4319328 17.4084034,14.6252101 L13.2302521,14.6252101 L13.2302521,7.44537815 L13.2302521,7.44537815 Z M13.2302521,1.03529412 C15.0319328,1.37142857 16.5613445,3.48907563 17.3210084,6.45714286 L13.2302521,6.45714286 L13.2302521,1.03529412 L13.2302521,1.03529412 Z M21.9932773,6.45714286 L18.3630252,6.45714286 C17.8218487,4.20840336 16.8504202,2.37647059 15.6436975,1.25042017 C18.8806723,1.86554622 21.0117647,3.61008403 21.9932773,6.45714286 Z M12.2319328,6.45714286 L7.86218487,6.45714286 C8.71260504,3.5394958 10.3731092,1.37142857 12.2319328,1.03193277 L12.2319328,6.45714286 Z M12.2319328,14.6218487 L9.77142857,14.6218487 L9.77142857,12.2957983 C9.77142857,11.4857143 9.15294118,10.8941176 7.91932773,10.5310924 C7.70756303,10.4705882 7.49579832,10.4201681 7.28067227,10.3831933 C7.29747899,9.39495798 7.41176471,8.41008403 7.62016807,7.44537815 L12.2319328,7.44537815 L12.2319328,14.6218487 Z M12.2319328,20.4605042 C11.4319328,20.4403361 10.6621849,20.3731092 9.95966387,20.2554622 C9.89579832,20.2453782 9.83193277,20.2453782 9.76806723,20.2554622 L9.76806723,15.6067227 L12.2285714,15.6067227 C12.2319328,15.6067227 12.2319328,20.4605042 12.2319328,20.4605042 Z M8.7697479,15.2537815 C8.62857143,15.4689076 8.2487395,15.7445378 7.64033613,15.9327731 C6.17142857,16.3697479 3.61008403,16.3697479 2.1512605,15.9327731 C1.45882353,15.7277311 1.11932773,15.4689076 0.998319328,15.2739496 L0.998319328,13.3243697 C1.24033613,13.4621849 1.51932773,13.5798319 1.85882353,13.6773109 C2.6789916,13.9226891 3.75798319,14.0605042 4.88739496,14.0605042 C6.01680672,14.0605042 7.09579832,13.9226891 7.91596639,13.6773109 C8.25546218,13.5764706 8.52773109,13.4588235 8.76638655,13.3310924 C8.7697479,13.3310924 8.7697479,15.2537815 8.7697479,15.2537815 L8.7697479,15.2537815 Z M8.7697479,18.4672269 C8.64201681,18.6722689 8.28907563,18.9512605 7.64033613,19.1495798 C6.16806723,19.5831933 3.61008403,19.5831933 2.1512605,19.1495798 C1.45882353,18.9445378 1.1092437,18.6756303 0.998319328,18.4773109 L0.998319328,16.5142857 C1.24705882,16.6521008 1.52941176,16.7798319 1.85882353,16.8773109 C2.6789916,17.1159664 3.75798319,17.2537815 4.88739496,17.2537815 C6.01680672,17.2537815 7.09579832,17.1159664 7.92605042,16.8806723 C8.23865546,16.7831933 8.51764706,16.6554622 8.76638655,16.5142857 C8.7697479,16.5142857 8.7697479,18.4672269 8.7697479,18.4672269 Z M8.7697479,21.4823529 C8.7697479,21.8957983 8.0605042,22.1747899 7.6302521,22.302521 C6.16134454,22.7361345 3.61008403,22.7361345 2.14117647,22.302521 C1.71092437,22.1747899 1.00168067,21.8991597 1.00168067,21.4823529 L1.00168067,19.7310924 C1.25042017,19.8689076 1.53277311,19.9865546 1.86218487,20.0840336 C2.68235294,20.3294118 3.76134454,20.4705882 4.8907563,20.4705882 C6.02016807,20.4705882 7.09915966,20.3294118 7.92941176,20.0840336 C8.24201681,19.9966387 8.5210084,19.8689076 8.7697479,19.7310924 L8.7697479,21.4823529 L8.7697479,21.4823529 Z M2.14117647,11.4756303 C3.61008403,11.0420168 6.16134454,11.0420168 7.6302521,11.4756303 C7.98991597,11.5831933 8.56134454,11.8016807 8.71932773,12.1142857 C8.62857143,12.2722689 8.37983193,12.507563 7.6302521,12.7361345 C6.17142857,13.1697479 3.61008403,13.1697479 2.1512605,12.7361345 C1.55966387,12.5579832 1.18991597,12.3327731 1.06218487,12.0941176 C1.18991597,11.8722689 1.55966387,11.6436975 2.14117647,11.4756303 Z M3.18991597,7.44537815 L6.58151261,7.44537815 C6.41008403,8.36638655 6.3092437,9.29747899 6.28235294,10.2352941 C5.14285714,10.1243697 3.99327731,10.1546218 2.8605042,10.3260504 C2.87058824,9.35462185 2.98151261,8.38991597 3.18991597,7.44537815 L3.18991597,7.44537815 Z M9.67058824,1.27394958 C8.4,2.41680672 7.38151261,4.23865546 6.8,6.45714286 L3.4789916,6.45714286 C4.44033613,3.64705882 6.5210084,1.92268908 9.67058824,1.27394958 Z M23.1327731,6.81344538 C23.1226891,6.79327731 23.1226891,6.77310924 23.112605,6.74621849 C21.8722689,2.31932773 18.3529412,0 12.7327731,0 C7.11260504,0 3.58991597,2.31932773 2.36302521,6.74285714 C2.34285714,6.77310924 2.34285714,6.80336134 2.33277311,6.82016807 C2.03361345,7.93277311 1.87563025,9.16638655 1.85210084,10.5277311 C0.840336134,10.8336134 0.231932773,11.2941176 0.0504201681,11.9058824 C0.0201680672,12.0369748 0,12.1680672 0,12.2957983 L0,21.4823529 C0,22.2823529 0.621848739,22.8739496 1.85210084,23.2369748 C2.68235294,23.4823529 3.7512605,23.6201681 4.88067227,23.6201681 C6.01008403,23.6201681 7.09243697,23.4823529 7.92268908,23.2369748 C9.15294118,22.8705882 9.77142857,22.2823529 9.77142857,21.4823529 L9.77142857,21.2168067 L9.78151261,21.2168067 C10.6823529,21.3848739 11.6806723,21.4621849 12.7327731,21.4621849 C19.8521008,21.4621849 23.6235294,17.7546218 23.6235294,10.7361345 C23.6235294,9.28067227 23.4521008,7.97983193 23.1327731,6.81344538 Z" id="Data-network_1Light"></path>
        </g>
    </g>
</svg>

<svg width="24" height="24" viewBox="0 0 24 24" xmlns="http://www.w3.org/2000/svg"><path d="M22.1 14.622h-3.67c.262-1.204.41-2.525.41-3.916 0-1.143-.097-2.239-.279-3.264h3.708c.232.985.353 2.08.353 3.294 0 1.459-.178 2.753-.521 3.886zm-6.47 5.59c1.1-1.025 1.99-2.632 2.562-4.605h3.56c-1.07 2.494-3.11 4.033-6.122 4.605zm-2.4.218v-4.823h3.913c-.804 2.645-2.242 4.507-3.913 4.823zm0-12.985h4.31c.191 1.026.299 2.118.299 3.264 0 1.388-.148 2.723-.43 3.916H13.23v-7.18zm0-6.41c1.802.336 3.331 2.454 4.091 5.422h-4.09V1.035zm8.763 5.422h-3.63c-.541-2.249-1.513-4.08-2.72-5.207 3.238.616 5.369 2.36 6.35 5.207zm-9.761 0h-4.37c.85-2.918 2.511-5.086 4.37-5.425v5.425zm0 8.165h-2.46v-2.326c0-.81-.62-1.402-1.853-1.765a6.054 6.054 0 00-.638-.148 15.14 15.14 0 01.34-2.938h4.61v7.177zm0 5.839c-.8-.02-1.57-.088-2.272-.206a.61.61 0 00-.192 0v-4.648h2.46c.004 0 .004 4.854.004 4.854zM8.77 15.254c-.141.215-.521.49-1.13.679-1.469.437-4.03.437-5.489 0-.692-.205-1.032-.464-1.153-.66v-1.949c.242.138.521.256.86.353.821.246 1.9.384 3.03.384 1.129 0 2.208-.138 3.028-.384.34-.1.612-.218.85-.346.004 0 .004 1.923.004 1.923zm0 3.213c-.128.205-.48.484-1.13.683-1.472.433-4.03.433-5.489 0-.692-.205-1.042-.474-1.153-.673v-1.963c.25.138.531.266.86.363.821.239 1.9.377 3.03.377 1.129 0 2.208-.138 3.038-.373a4.28 4.28 0 00.84-.367c.004 0 .004 1.953.004 1.953zm0 3.015c0 .414-.71.693-1.14.82-1.469.434-4.02.434-5.489 0-.43-.127-1.14-.403-1.14-.82v-1.75c.25.137.532.255.861.352.82.245 1.9.387 3.029.387 1.13 0 2.208-.142 3.038-.387.313-.087.592-.215.84-.353v1.751zM2.14 11.476c1.47-.434 4.02-.434 5.49 0 .359.107.93.326 1.088.638-.09.158-.34.394-1.089.622-1.459.434-4.02.434-5.479 0-.591-.178-.961-.403-1.089-.642.128-.222.498-.45 1.08-.618zm1.049-4.03h3.392a18.064 18.064 0 00-.3 2.79c-1.14-.112-2.289-.081-3.421.09.01-.971.12-1.936.329-2.88zm6.48-6.172C8.4 2.417 7.383 4.239 6.8 6.457H3.479c.961-2.81 3.042-4.534 6.192-5.183zm13.463 5.54c-.01-.02-.01-.04-.02-.068C21.873 2.32 18.353 0 12.733 0 7.113 0 3.59 2.32 2.363 6.743c-.02.03-.02.06-.03.077-.3 1.113-.457 2.346-.48 3.708-1.013.306-1.621.766-1.803 1.378-.03.131-.05.262-.05.39v9.186c0 .8.622 1.392 1.852 1.755.83.245 1.9.383 3.029.383 1.13 0 2.211-.138 3.042-.383 1.23-.366 1.848-.955 1.848-1.755v-.265h.01c.901.168 1.9.245 2.952.245 7.12 0 10.89-3.707 10.89-10.726 0-1.455-.17-2.756-.49-3.923z" fill="#5CB615" fill-rule="nonzero"/></svg>
